assets/emojis/CryingFace.svg

<svg width="126" height="126" viewBox="0 0 126 126" fill="none" xmlns="http://www.w3.org/2000/svg">
<circle cx="62.874" cy="63.1904" r="62.3496" fill="#F9B42F"/>
<path opacity="0.3" fill-rule="evenodd" clip-rule="evenodd" d="M113.81 99.3618C102.488 110.953 86.6859 118.149 69.203 118.149C34.7683 118.149 6.85345 90.2337 6.85345 55.799C6.85345 42.4033 11.0779 29.9943 18.2673 19.8315C7.28955 31.0707 0.524414 46.4425 0.524414 63.3943C0.524414 97.829 28.4393 125.744 62.874 125.744C83.9131 125.744 102.518 115.323 113.81 99.3618Z" fill="#BC8417"/>
<path d="M37.6148 62.9938C40.2698 62.9938 42.422 60.8415 42.422 58.1866C42.422 55.5317 40.2698 53.3794 37.6148 53.3794C34.9599 53.3794 32.8076 55.5317 32.8076 58.1866C32.8076 60.8415 34.9599 62.9938 37.6148 62.9938Z" fill="#2C2A46"/>
<path d="M88.2545 62.9933C90.9094 62.9933 93.0617 60.841 93.0617 58.1861C93.0617 55.5312 90.9094 53.3789 88.2545 53.3789C85.5995 53.3789 83.4473 55.5312 83.4473 58.1861C83.4473 60.841 85.5995 62.9933 88.2545 62.9933Z" fill="#2C2A46"/>
<path d="M63.3022 76.3951C70.6467 76.3951 76.9293 78.9435 78.9291 82.7485C79.1344 83.1441 79.1828 83.6027 79.0647 84.0324C78.9466 84.4622 78.6706 84.8316 78.292 85.0668C78.0865 85.1783 77.861 85.2479 77.6285 85.2717C77.396 85.2956 77.1611 85.2731 76.9373 85.2056C76.7135 85.1382 76.5054 85.027 76.3248 84.8787C76.1442 84.7303 75.9947 84.5477 75.8851 84.3412C74.7525 82.1644 69.9742 79.8638 63.3907 79.8638C56.8072 79.8638 51.7281 82.2529 50.7901 84.5713C50.6117 85.0078 50.2673 85.3556 49.8325 85.5381C49.3977 85.7207 48.9082 85.723 48.4717 85.5447C48.0352 85.3663 47.6874 85.0218 47.5049 84.5871C47.3223 84.1523 47.32 83.6628 47.4984 83.2263C49.1442 79.2267 55.71 76.3951 63.3022 76.3951Z" fill="#2C2A46"/>
<path d="M95.9121 60.5105L90.0375 70.6597C89.4307 71.7474 89.123 72.9712 89.1446 74.211C89.1662 75.4507 89.5164 76.6635 90.1607 77.7302C90.805 78.7968 91.7212 79.6805 92.8192 80.2944C93.9172 80.9082 95.1592 81.231 96.4229 81.231C97.6867 81.231 98.9287 80.9082 100.027 80.2944C101.125 79.6805 102.041 78.7968 102.685 77.7302C103.33 76.6635 103.68 75.4507 103.701 74.211C103.723 72.9712 103.415 71.7474 102.808 70.6597L96.6464 60.5105C96.6015 60.4578 96.5453 60.4155 96.4819 60.3864C96.4184 60.3573 96.3493 60.3423 96.2793 60.3423C96.2093 60.3423 96.1401 60.3573 96.0767 60.3864C96.0132 60.4155 95.9571 60.4578 95.9121 60.5105Z" fill="#C3EEF4"/>
</svg>

<svg xmlns="http://www.w3.org/2000/svg" width="126" height="126" fill="none" viewBox="0 0 126 126"><circle cx="62.874" cy="63.19" r="62.35" fill="#f9b42f"/><path fill="#bc8417" fill-rule="evenodd" d="M113.81 99.362c-11.322 11.591-27.124 18.787-44.607 18.787-34.435 0-62.35-27.915-62.35-62.35 0-13.396 4.225-25.805 11.414-35.967C7.29 31.07.524 46.442.524 63.393c0 34.435 27.915 62.35 62.35 62.35 21.04 0 39.644-10.421 50.936-26.382" clip-rule="evenodd" opacity=".3"/><path fill="#2c2a46" d="M37.615 62.994a4.807 4.807 0 1 0 0-9.615 4.807 4.807 0 0 0 0 9.615m50.64-.001a4.807 4.807 0 1 0 0-9.614 4.807 4.807 0 0 0 0 9.614M63.302 76.395c7.345 0 13.627 2.549 15.627 6.354a1.77 1.77 0 0 1-.637 2.318 1.77 1.77 0 0 1-2.407-.726c-1.133-2.177-5.91-4.477-12.494-4.477s-11.663 2.389-12.6 4.707a1.778 1.778 0 0 1-3.293-1.345c1.646-4 8.212-6.83 15.804-6.83"/><path fill="#c3eef4" d="m95.912 60.51-5.875 10.15a7.04 7.04 0 0 0-.892 3.551 7.04 7.04 0 0 0 1.016 3.52 7.2 7.2 0 0 0 2.658 2.563 7.4 7.4 0 0 0 3.604.937 7.4 7.4 0 0 0 3.604-.937 7.2 7.2 0 0 0 2.658-2.564 7.03 7.03 0 0 0 .123-7.07l-6.162-10.15a.48.48 0 0 0-.367-.168.5.5 0 0 0-.367.169"/></svg>
